X: 17752
T: Hommage à Edmond Parizeau
R: reel
M: 4/4
K: Amajor
ABcd|:eAAe AAeA|AAed f2ed|ceAB cAeA|ceAc dedc|B4 BABc|
[1 BcAc efed|c2(3BcB ABcA|E4 ABcd:|2 e2d2 c2(3BcB|Afed c2B2|A2c2 (3BcB A2||
|:a4 f4|d3A d2f2|e3f efec|A2c2 (3BcB A2|B4 BABc|
e2d2 c2B2|1 cBAc ecef|e2c2 (3BcB A2:|2 Afed c2 (3BcB|A4 ABcd||

